public/imgs/addLevel.svg

<svg xmlns="http://www.w3.org/2000/svg" width="265" height="401" fill="none" xmlns:v="https://vecta.io/nano"><g filter="url(#A)"><rect x="4" y="2" width="257" height="393" rx="5" fill="#fff"/></g><path d="M4 7a5 5 0 0 1 5-5h247a5 5 0 0 1 5 5v123H4V7z" fill="#7b61ff"/><path d="M90.456 44.912v5.76h-2.232V47H74.4l-.024 3.672h-2.232l.024-5.76h.816c1.056-.064 1.8-.896 2.232-2.496.432-1.616.696-3.888.792-6.816l.168-5.4h11.808v14.712h2.472zM78.12 35.816c-.08 2.368-.272 4.328-.576 5.88-.288 1.552-.76 2.624-1.416 3.216h9.48V32.288H78.24l-.12 3.528zm20.4 11.328c-1.264 0-2.4-.28-3.408-.84s-1.8-1.328-2.376-2.304c-.56-.992-.84-2.112-.84-3.36s.28-2.36.84-3.336c.576-.992 1.368-1.76 2.376-2.304 1.008-.56 2.144-.84 3.408-.84s2.392.28 3.384.84a5.82 5.82 0 0 1 2.352 2.304c.576.976.864 2.088.864 3.336s-.288 2.368-.864 3.36a6.03 6.03 0 0 1-2.352 2.304c-.992.56-2.12.84-3.384.84zm0-2.016c.816 0 1.544-.184 2.184-.552a4.06 4.06 0 0 0 1.536-1.584c.368-.688.552-1.472.552-2.352s-.184-1.656-.552-2.328c-.368-.688-.88-1.216-1.536-1.584-.64-.368-1.368-.552-2.184-.552s-1.552.184-2.208.552c-.64.368-1.152.896-1.536 1.584-.368.672-.552 1.448-.552 2.328s.184 1.664.552 2.352c.384.672.896 1.2 1.536 1.584.656.368 1.392.552 2.208.552zm16.407-10.416c1.184 0 2.24.264 3.168.792s1.648 1.264 2.16 2.208c.528.928.792 1.992.792 3.192 0 1.232-.28 2.328-.84 3.288a5.64 5.64 0 0 1-2.328 2.208c-.992.528-2.128.792-3.408.792-2.16 0-3.832-.736-5.016-2.208-1.168-1.488-1.752-3.576-1.752-6.264 0-2.608.536-4.648 1.608-6.12 1.072-1.488 2.712-2.472 4.92-2.952l5.808-1.296.336 2.112-5.352 1.152c-1.664.368-2.904.992-3.72 1.872s-1.28 2.144-1.392 3.792c.544-.816 1.248-1.448 2.112-1.896s1.832-.672 2.904-.672zm-.408 10.56c.816 0 1.536-.184 2.16-.552a3.86 3.86 0 0 0 1.488-1.512c.352-.656.528-1.4.528-2.232 0-1.264-.384-2.28-1.152-3.048s-1.776-1.152-3.024-1.152-2.264.384-3.048 1.152c-.768.768-1.152 1.784-1.152 3.048 0 .832.176 1.576.528 2.232.368.64.872 1.144 1.512 1.512s1.36.552 2.16.552zm14.237-11.112c1.76 0 3.104.432 4.032 1.296.944.864 1.416 2.152 1.416 3.864V47h-2.184v-1.68c-.384.592-.936 1.048-1.656 1.368-.704.304-1.544.456-2.52.456-1.424 0-2.568-.344-3.432-1.032-.848-.688-1.272-1.592-1.272-2.712s.408-2.016 1.224-2.688c.816-.688 2.112-1.032 3.888-1.032h3.648v-.456c0-.992-.288-1.752-.864-2.28s-1.424-.792-2.544-.792c-.752 0-1.488.128-2.208.384-.72.24-1.328.568-1.824.984l-.96-1.728c.656-.528 1.44-.928 2.352-1.2.912-.288 1.88-.432 2.904-.432zm-.528 11.208c.88 0 1.64-.192 2.28-.576.64-.4 1.104-.96 1.392-1.68v-1.776h-3.552c-1.952 0-2.928.656-2.928 1.968 0 .64.248 1.144.744 1.512s1.184.552 2.064.552zm18.789-4.968c1.648.416 2.472 1.448 2.472 3.096 0 1.12-.424 1.984-1.272 2.592-.832.608-2.08.912-3.744.912h-6.12V34.28h5.904c1.504 0 2.68.288 3.528.864.848.56 1.272 1.36 1.272 2.4 0 .672-.184 1.256-.552 1.752-.352.48-.848.848-1.488 1.104zm-6.408-.648h3.456c.88 0 1.544-.16 1.992-.48.464-.32.696-.784.696-1.392 0-1.216-.896-1.824-2.688-1.824h-3.456v3.696zm3.696 5.472c.96 0 1.68-.152 2.16-.456s.72-.776.72-1.416c0-.656-.224-1.144-.672-1.464-.432-.32-1.12-.48-2.064-.48h-3.84v3.816h3.696zm8.79-10.944h2.304v9.264l7.8-9.264h2.088V47h-2.304v-9.264L155.207 47h-2.112V34.28zm26.144 2.016h-4.656V47h-2.304V36.296h-4.656V34.28h11.616v2.016zm8.236 2.304c1.616.016 2.848.384 3.696 1.104s1.272 1.736 1.272 3.048c0 1.376-.464 2.44-1.392 3.192-.912.736-2.224 1.096-3.936 1.08l-5.52-.024V34.28h2.304v4.296l3.576.024zm-.552 6.672c1.04.016 1.824-.192 2.352-.624.544-.432.816-1.072.816-1.92 0-.832-.264-1.44-.792-1.824-.512-.384-1.304-.584-2.376-.6l-3.024-.048v4.992l3.024.024zM93.303 63.28l-6.168 13.992c-.544 1.296-1.184 2.208-1.92 2.736-.72.528-1.592.792-2.616.792-.624 0-1.232-.104-1.824-.312-.576-.192-1.056-.48-1.44-.864l.984-1.728c.656.624 1.416.936 2.28.936.56 0 1.024-.152 1.392-.456.384-.288.728-.792 1.032-1.512l.408-.888-5.616-12.696h2.4l4.44 10.176 4.392-10.176h2.256zm9.103-.12c1.232 0 2.336.272 3.312.816s1.736 1.304 2.28 2.28c.56.976.84 2.104.84 3.384s-.28 2.416-.84 3.408c-.544.976-1.304 1.736-2.28 2.28s-2.08.816-3.312.816c-.912 0-1.752-.176-2.52-.528-.752-.352-1.392-.864-1.92-1.536v6.576h-2.304V63.28h2.208v2.016c.512-.704 1.16-1.232 1.944-1.584.784-.368 1.648-.552 2.592-.552zm-.192 10.968c.816 0 1.544-.184 2.184-.552a4.06 4.06 0 0 0 1.536-1.584c.384-.688.576-1.472.576-2.352s-.192-1.656-.576-2.328c-.368-.688-.88-1.216-1.536-1.584-.64-.368-1.368-.552-2.184-.552-.8 0-1.528.192-2.184.576a4.11 4.11 0 0 0-1.536 1.56c-.368.672-.552 1.448-.552 2.328s.184 1.664.552 2.352a4.06 4.06 0 0 0 1.536 1.584c.656.368 1.384.552 2.184.552zm15.419 2.016c-1.264 0-2.4-.28-3.408-.84s-1.8-1.328-2.376-2.304c-.56-.992-.84-2.112-.84-3.36s.28-2.36.84-3.336c.576-.992 1.368-1.76 2.376-2.304 1.008-.56 2.144-.84 3.408-.84s2.392.28 3.384.84a5.82 5.82 0 0 1 2.352 2.304c.576.976.864 2.088.864 3.336s-.288 2.368-.864 3.36a6.03 6.03 0 0 1-2.352 2.304c-.992.56-2.12.84-3.384.84zm0-2.016c.816 0 1.544-.184 2.184-.552a4.06 4.06 0 0 0 1.536-1.584c.368-.688.552-1.472.552-2.352s-.184-1.656-.552-2.328c-.368-.688-.88-1.216-1.536-1.584-.64-.368-1.368-.552-2.184-.552s-1.552.184-2.208.552c-.64.368-1.152.896-1.536 1.584-.368.672-.552 1.448-.552 2.328s.184 1.664.552 2.352c.384.672.896 1.2 1.536 1.584.656.368 1.392.552 2.208.552zm18.591-4.728c1.648.416 2.472 1.448 2.472 3.096 0 1.12-.424 1.984-1.272 2.592-.832.608-2.08.912-3.744.912h-6.12V63.28h5.904c1.504 0 2.68.288 3.528.864.848.56 1.272 1.36 1.272 2.4 0 .672-.184 1.256-.552 1.752-.352.48-.848.848-1.488 1.104zm-6.408-.648h3.456c.88 0 1.544-.16 1.992-.48.464-.32.696-.784.696-1.392 0-1.216-.896-1.824-2.688-1.824h-3.456v3.696zm3.696 5.472c.96 0 1.68-.152 2.16-.456s.72-.776.72-1.416c0-.656-.224-1.144-.672-1.464-.432-.32-1.12-.48-2.064-.48h-3.84v3.816h3.696zm20.286-4.512c0 .176-.016.408-.048.696h-10.32c.144 1.12.632 2.024 1.464 2.712.848.672 1.896 1.008 3.144 1.008 1.52 0 2.744-.512 3.672-1.536l1.272 1.488c-.576.672-1.296 1.184-2.16 1.536-.848.352-1.8.528-2.856.528-1.344 0-2.536-.272-3.576-.816-1.04-.56-1.848-1.336-2.424-2.328-.56-.992-.84-2.112-.84-3.36 0-1.232.272-2.344.816-3.336.56-.992 1.32-1.76 2.28-2.304.976-.56 2.072-.84 3.288-.84s2.296.28 3.24.84a5.63 5.63 0 0 1 2.232 2.304c.544.992.816 2.128.816 3.408zm-6.288-4.608c-1.104 0-2.032.336-2.784 1.008-.736.672-1.168 1.552-1.296 2.64h8.16c-.128-1.072-.568-1.944-1.32-2.616-.736-.688-1.656-1.032-2.76-1.032zm9.863-1.824h2.304v5.4h7.248v-5.4h2.304V76h-2.304v-5.328h-7.248V76h-2.304V63.28zm22.216 4.32c1.616.016 2.848.384 3.696 1.104s1.272 1.736 1.272 3.048c0 1.376-.464 2.44-1.392 3.192-.912.736-2.224 1.096-3.936 1.08l-5.52-.024V63.28h2.304v4.296l3.576.024zm-.552 6.672c1.04.016 1.824-.192 2.352-.624.544-.432.816-1.072.816-1.92 0-.832-.264-1.44-.792-1.824-.512-.384-1.304-.584-2.376-.6l-3.024-.048v4.992l3.024.024zM83.973 92.28V105h-2.304V94.296h-7.176V105h-2.304V92.28h11.784zm9.906 12.864c-1.264 0-2.4-.28-3.408-.84s-1.8-1.328-2.376-2.304c-.56-.992-.84-2.112-.84-3.36s.28-2.36.84-3.336c.576-.992 1.368-1.76 2.376-2.304 1.008-.56 2.144-.84 3.408-.84s2.392.28 3.384.84a5.82 5.82 0 0 1 2.352 2.304c.576.976.864 2.088.864 3.336s-.288 2.368-.864 3.36a6.03 6.03 0 0 1-2.352 2.304c-.992.56-2.12.84-3.384.84zm0-2.016c.816 0 1.544-.184 2.184-.552a4.06 4.06 0 0 0 1.536-1.584c.368-.688.552-1.472.552-2.352s-.184-1.656-.552-2.328c-.368-.688-.88-1.216-1.536-1.584-.64-.368-1.368-.552-2.184-.552s-1.552.184-2.208.552c-.64.368-1.152.896-1.536 1.584-.368.672-.552 1.448-.552 2.328s.184 1.664.552 2.352c.384.672.896 1.2 1.536 1.584.656.368 1.392.552 2.208.552zm22.769-.144v4.968h-2.16V105h-10.632v2.952h-2.184v-4.968h.672c.816-.048 1.376-.624 1.68-1.728s.512-2.664.624-4.68l.192-4.296h9.864v10.704h1.944zm-9.888-6.24c-.064 1.6-.2 2.928-.408 3.984-.192 1.04-.552 1.792-1.08 2.256h7.128v-8.688h-5.52l-.12 2.448zm24.674-4.464V105h-2.304V94.296h-7.176V105h-2.304V92.28h11.784zm4.458 0h2.304v9.264l7.8-9.264h2.088V105h-2.304v-9.264L138.004 105h-2.112V92.28zm22.208 12.864c-1.296 0-2.456-.28-3.48-.84-1.008-.56-1.8-1.328-2.376-2.304-.576-.992-.864-2.112-.864-3.36s.288-2.36.864-3.336c.576-.992 1.368-1.76 2.376-2.304 1.024-.56 2.184-.84 3.48-.84 1.152 0 2.176.232 3.072.696a4.94 4.94 0 0 1 2.112 2.016L161.532 96c-.4-.608-.896-1.064-1.488-1.368s-1.248-.456-1.968-.456c-.832 0-1.584.184-2.256.552-.656.368-1.176.896-1.56 1.584-.368.672-.552 1.448-.552 2.328 0 .896.184 1.688.552 2.376a4.06 4.06 0 0 0 1.56 1.56c.672.368 1.424.552 2.256.552.72 0 1.376-.152 1.968-.456s1.088-.76 1.488-1.368l1.752 1.104a5.09 5.09 0 0 1-2.112 2.04c-.896.464-1.92.696-3.072.696zm13.111-5.52h-2.64V105h-2.304V92.28h2.304v5.376h2.688l4.128-5.376h2.472l-4.824 6.12 5.16 6.6h-2.712l-4.272-5.376zm9.4-7.344h2.304v9.264l7.8-9.264h2.088V105h-2.304v-9.264L182.723 105h-2.112V92.28z" fill="#fff"/><path d="M168.96 238.18a2 2 0 0 1-2 2h-25.64a2 2 0 0 0-2 2v25.151a2 2 0 0 1-2 2h-9.68a2 2 0 0 1-2-2V242.18a2 2 0 0 0-2-2H98a2 2 0 0 1-2-2v-8.866a2 2 0 0 1 2-2h25.64a2 2 0 0 0 2-2V200a2 2 0 0 1 2-2h9.68a2 2 0 0 1 2 2v25.314a2 2 0 0 0 2 2h25.64a2 2 0 0 1 2 2v8.866z" fill="#7b61ff"/><defs><filter id="A" x="0" y="0" width="265" height="401" filterUnits="userSpaceOnUse" color-interpolation-filters="sRGB"><feFlood flood-opacity="0" result="A"/><feColorMatrix in="SourceAlpha" values="0 0 0 0 0 0 0 0 0 0 0 0 0 0 0 0 0 0 127 0" result="B"/><feOffset dy="2"/><feGaussianBlur stdDeviation="2"/><feComposite in2="B" operator="out"/><feColorMatrix values="0 0 0 0 0 0 0 0 0 0 0 0 0 0 0 0 0 0 0.25 0"/><feBlend in2="A"/><feBlend in="SourceGraphic"/></filter></defs></svg>

<svg width="265" height="401" viewBox="0 0 265 401" fill="none" xmlns="http://www.w3.org/2000/svg">
<g filter="url(#filter0_d_715:1223)">
<rect x="4" y="2" width="257" height="393" rx="5" fill="white"/>
</g>
<path d="M4 7C4 4.23858 6.23858 2 9 2H256C258.761 2 261 4.23858 261 7V130H4V7Z" fill="#7B61FF"/>
<path d="M90.456 44.912V50.672H88.224V47H74.4L74.376 50.672H72.144L72.168 44.912H72.984C74.04 44.848 74.784 44.016 75.216 42.416C75.648 40.8 75.912 38.528 76.008 35.6L76.176 30.2H87.984V44.912H90.456ZM78.12 35.816C78.04 38.184 77.848 40.144 77.544 41.696C77.256 43.248 76.784 44.32 76.128 44.912H85.608V32.288H78.24L78.12 35.816ZM98.5198 47.144C97.2558 47.144 96.1198 46.864 95.1118 46.304C94.1038 45.744 93.3118 44.976 92.7358 44C92.1758 43.008 91.8958 41.888 91.8958 40.64C91.8958 39.392 92.1758 38.28 92.7358 37.304C93.3118 36.312 94.1038 35.544 95.1118 35C96.1198 34.44 97.2558 34.16 98.5198 34.16C99.7838 34.16 100.912 34.44 101.904 35C102.912 35.544 103.696 36.312 104.256 37.304C104.832 38.28 105.12 39.392 105.12 40.64C105.12 41.888 104.832 43.008 104.256 44C103.696 44.976 102.912 45.744 101.904 46.304C100.912 46.864 99.7838 47.144 98.5198 47.144ZM98.5198 45.128C99.3358 45.128 100.064 44.944 100.704 44.576C101.36 44.192 101.872 43.664 102.24 42.992C102.608 42.304 102.792 41.52 102.792 40.64C102.792 39.76 102.608 38.984 102.24 38.312C101.872 37.624 101.36 37.096 100.704 36.728C100.064 36.36 99.3358 36.176 98.5198 36.176C97.7038 36.176 96.9678 36.36 96.3118 36.728C95.6718 37.096 95.1598 37.624 94.7758 38.312C94.4078 38.984 94.2238 39.76 94.2238 40.64C94.2238 41.52 94.4078 42.304 94.7758 42.992C95.1598 43.664 95.6718 44.192 96.3118 44.576C96.9678 44.944 97.7038 45.128 98.5198 45.128ZM114.927 34.712C116.111 34.712 117.167 34.976 118.095 35.504C119.023 36.032 119.743 36.768 120.255 37.712C120.783 38.64 121.047 39.704 121.047 40.904C121.047 42.136 120.767 43.232 120.207 44.192C119.663 45.136 118.887 45.872 117.879 46.4C116.887 46.928 115.751 47.192 114.471 47.192C112.311 47.192 110.639 46.456 109.455 44.984C108.287 43.496 107.703 41.408 107.703 38.72C107.703 36.112 108.239 34.072 109.311 32.6C110.383 31.112 112.023 30.128 114.231 29.648L120.039 28.352L120.375 30.464L115.023 31.616C113.359 31.984 112.119 32.608 111.303 33.488C110.487 34.368 110.023 35.632 109.911 37.28C110.455 36.464 111.159 35.832 112.023 35.384C112.887 34.936 113.855 34.712 114.927 34.712ZM114.519 45.272C115.335 45.272 116.055 45.088 116.679 44.72C117.319 44.352 117.815 43.848 118.167 43.208C118.519 42.552 118.695 41.808 118.695 40.976C118.695 39.712 118.311 38.696 117.543 37.928C116.775 37.16 115.767 36.776 114.519 36.776C113.271 36.776 112.255 37.16 111.471 37.928C110.703 38.696 110.319 39.712 110.319 40.976C110.319 41.808 110.495 42.552 110.847 43.208C111.215 43.848 111.719 44.352 112.359 44.72C112.999 45.088 113.719 45.272 114.519 45.272ZM128.756 34.16C130.516 34.16 131.86 34.592 132.788 35.456C133.732 36.32 134.204 37.608 134.204 39.32V47H132.02V45.32C131.636 45.912 131.084 46.368 130.364 46.688C129.66 46.992 128.82 47.144 127.844 47.144C126.42 47.144 125.276 46.8 124.412 46.112C123.564 45.424 123.14 44.52 123.14 43.4C123.14 42.28 123.548 41.384 124.364 40.712C125.18 40.024 126.476 39.68 128.252 39.68H131.9V39.224C131.9 38.232 131.612 37.472 131.036 36.944C130.46 36.416 129.612 36.152 128.492 36.152C127.74 36.152 127.004 36.28 126.284 36.536C125.564 36.776 124.956 37.104 124.46 37.52L123.5 35.792C124.156 35.264 124.94 34.864 125.852 34.592C126.764 34.304 127.732 34.16 128.756 34.16ZM128.228 45.368C129.108 45.368 129.868 45.176 130.508 44.792C131.148 44.392 131.612 43.832 131.9 43.112V41.336H128.348C126.396 41.336 125.42 41.992 125.42 43.304C125.42 43.944 125.668 44.448 126.164 44.816C126.66 45.184 127.348 45.368 128.228 45.368ZM147.017 40.4C148.665 40.816 149.489 41.848 149.489 43.496C149.489 44.616 149.065 45.48 148.217 46.088C147.385 46.696 146.137 47 144.473 47H138.353V34.28H144.257C145.761 34.28 146.937 34.568 147.785 35.144C148.633 35.704 149.057 36.504 149.057 37.544C149.057 38.216 148.873 38.8 148.505 39.296C148.153 39.776 147.657 40.144 147.017 40.4ZM140.609 39.752H144.065C144.945 39.752 145.609 39.592 146.057 39.272C146.521 38.952 146.753 38.488 146.753 37.88C146.753 36.664 145.857 36.056 144.065 36.056H140.609V39.752ZM144.305 45.224C145.265 45.224 145.985 45.072 146.465 44.768C146.945 44.464 147.185 43.992 147.185 43.352C147.185 42.696 146.961 42.208 146.513 41.888C146.081 41.568 145.393 41.408 144.449 41.408H140.609V45.224H144.305ZM153.095 34.28H155.399V43.544L163.199 34.28H165.287V47H162.983V37.736L155.207 47H153.095V34.28ZM179.239 36.296H174.583V47H172.279V36.296H167.623V34.28H179.239V36.296ZM187.475 38.6C189.091 38.616 190.323 38.984 191.171 39.704C192.019 40.424 192.443 41.44 192.443 42.752C192.443 44.128 191.979 45.192 191.051 45.944C190.139 46.68 188.827 47.04 187.115 47.024L181.595 47V34.28H183.899V38.576L187.475 38.6ZM186.923 45.272C187.963 45.288 188.747 45.08 189.275 44.648C189.819 44.216 190.091 43.576 190.091 42.728C190.091 41.896 189.827 41.288 189.299 40.904C188.787 40.52 187.995 40.32 186.923 40.304L183.899 40.256V45.248L186.923 45.272ZM93.3028 63.28L87.1348 77.272C86.5908 78.568 85.9508 79.48 85.2148 80.008C84.4948 80.536 83.6228 80.8 82.5988 80.8C81.9748 80.8 81.3668 80.696 80.7748 80.488C80.1988 80.296 79.7188 80.008 79.3347 79.624L80.3188 77.896C80.9747 78.52 81.7348 78.832 82.5988 78.832C83.1588 78.832 83.6228 78.68 83.9908 78.376C84.3748 78.088 84.7188 77.584 85.0228 76.864L85.4308 75.976L79.8148 63.28H82.2148L86.6548 73.456L91.0468 63.28H93.3028ZM102.406 63.16C103.638 63.16 104.742 63.432 105.718 63.976C106.694 64.52 107.454 65.28 107.998 66.256C108.558 67.232 108.838 68.36 108.838 69.64C108.838 70.92 108.558 72.056 107.998 73.048C107.454 74.024 106.694 74.784 105.718 75.328C104.742 75.872 103.638 76.144 102.406 76.144C101.494 76.144 100.654 75.968 99.8857 75.616C99.1337 75.264 98.4937 74.752 97.9657 74.08V80.656H95.6617V63.28H97.8697V65.296C98.3817 64.592 99.0297 64.064 99.8137 63.712C100.598 63.344 101.462 63.16 102.406 63.16ZM102.214 74.128C103.03 74.128 103.758 73.944 104.398 73.576C105.054 73.192 105.566 72.664 105.934 71.992C106.318 71.304 106.51 70.52 106.51 69.64C106.51 68.76 106.318 67.984 105.934 67.312C105.566 66.624 105.054 66.096 104.398 65.728C103.758 65.36 103.03 65.176 102.214 65.176C101.414 65.176 100.686 65.368 100.03 65.752C99.3897 66.12 98.8777 66.64 98.4937 67.312C98.1257 67.984 97.9417 68.76 97.9417 69.64C97.9417 70.52 98.1257 71.304 98.4937 71.992C98.8617 72.664 99.3737 73.192 100.03 73.576C100.686 73.944 101.414 74.128 102.214 74.128ZM117.633 76.144C116.369 76.144 115.233 75.864 114.225 75.304C113.217 74.744 112.425 73.976 111.849 73C111.289 72.008 111.009 70.888 111.009 69.64C111.009 68.392 111.289 67.28 111.849 66.304C112.425 65.312 113.217 64.544 114.225 64C115.233 63.44 116.369 63.16 117.633 63.16C118.897 63.16 120.025 63.44 121.017 64C122.025 64.544 122.809 65.312 123.369 66.304C123.945 67.28 124.233 68.392 124.233 69.64C124.233 70.888 123.945 72.008 123.369 73C122.809 73.976 122.025 74.744 121.017 75.304C120.025 75.864 118.897 76.144 117.633 76.144ZM117.633 74.128C118.449 74.128 119.177 73.944 119.817 73.576C120.473 73.192 120.985 72.664 121.353 71.992C121.721 71.304 121.905 70.52 121.905 69.64C121.905 68.76 121.721 67.984 121.353 67.312C120.985 66.624 120.473 66.096 119.817 65.728C119.177 65.36 118.449 65.176 117.633 65.176C116.817 65.176 116.081 65.36 115.425 65.728C114.785 66.096 114.273 66.624 113.889 67.312C113.521 67.984 113.337 68.76 113.337 69.64C113.337 70.52 113.521 71.304 113.889 71.992C114.273 72.664 114.785 73.192 115.425 73.576C116.081 73.944 116.817 74.128 117.633 74.128ZM136.224 69.4C137.872 69.816 138.696 70.848 138.696 72.496C138.696 73.616 138.272 74.48 137.424 75.088C136.592 75.696 135.344 76 133.68 76H127.56V63.28H133.464C134.968 63.28 136.144 63.568 136.992 64.144C137.84 64.704 138.264 65.504 138.264 66.544C138.264 67.216 138.08 67.8 137.712 68.296C137.36 68.776 136.864 69.144 136.224 69.4ZM129.816 68.752H133.272C134.152 68.752 134.816 68.592 135.264 68.272C135.728 67.952 135.96 67.488 135.96 66.88C135.96 65.664 135.064 65.056 133.272 65.056H129.816V68.752ZM133.512 74.224C134.472 74.224 135.192 74.072 135.672 73.768C136.152 73.464 136.392 72.992 136.392 72.352C136.392 71.696 136.168 71.208 135.72 70.888C135.288 70.568 134.6 70.408 133.656 70.408H129.816V74.224H133.512ZM153.798 69.712C153.798 69.888 153.782 70.12 153.75 70.408H143.43C143.574 71.528 144.062 72.432 144.894 73.12C145.742 73.792 146.79 74.128 148.038 74.128C149.558 74.128 150.782 73.616 151.71 72.592L152.982 74.08C152.406 74.752 151.686 75.264 150.822 75.616C149.974 75.968 149.022 76.144 147.966 76.144C146.622 76.144 145.43 75.872 144.39 75.328C143.35 74.768 142.542 73.992 141.966 73C141.406 72.008 141.126 70.888 141.126 69.64C141.126 68.408 141.398 67.296 141.942 66.304C142.502 65.312 143.262 64.544 144.222 64C145.198 63.44 146.294 63.16 147.51 63.16C148.726 63.16 149.806 63.44 150.75 64C151.71 64.544 152.454 65.312 152.982 66.304C153.526 67.296 153.798 68.432 153.798 69.712ZM147.51 65.104C146.406 65.104 145.478 65.44 144.726 66.112C143.99 66.784 143.558 67.664 143.43 68.752H151.59C151.462 67.68 151.022 66.808 150.27 66.136C149.534 65.448 148.614 65.104 147.51 65.104ZM157.373 63.28H159.677V68.68H166.925V63.28H169.229V76H166.925V70.672H159.677V76H157.373V63.28ZM179.589 67.6C181.205 67.616 182.437 67.984 183.285 68.704C184.133 69.424 184.557 70.44 184.557 71.752C184.557 73.128 184.093 74.192 183.165 74.944C182.253 75.68 180.941 76.04 179.229 76.024L173.709 76V63.28H176.013V67.576L179.589 67.6ZM179.037 74.272C180.077 74.288 180.861 74.08 181.389 73.648C181.933 73.216 182.205 72.576 182.205 71.728C182.205 70.896 181.941 70.288 181.413 69.904C180.901 69.52 180.109 69.32 179.037 69.304L176.013 69.256V74.248L179.037 74.272ZM83.973 92.28V105H81.669V94.296H74.493V105H72.189V92.28H83.973ZM93.8792 105.144C92.6152 105.144 91.4792 104.864 90.4712 104.304C89.4632 103.744 88.6712 102.976 88.0952 102C87.5352 101.008 87.2552 99.888 87.2552 98.64C87.2552 97.392 87.5352 96.28 88.0952 95.304C88.6712 94.312 89.4632 93.544 90.4712 93C91.4792 92.44 92.6152 92.16 93.8792 92.16C95.1432 92.16 96.2712 92.44 97.2632 93C98.2712 93.544 99.0552 94.312 99.6152 95.304C100.191 96.28 100.479 97.392 100.479 98.64C100.479 99.888 100.191 101.008 99.6152 102C99.0552 102.976 98.2712 103.744 97.2632 104.304C96.2712 104.864 95.1432 105.144 93.8792 105.144ZM93.8792 103.128C94.6952 103.128 95.4232 102.944 96.0632 102.576C96.7192 102.192 97.2312 101.664 97.5992 100.992C97.9672 100.304 98.1512 99.52 98.1512 98.64C98.1512 97.76 97.9672 96.984 97.5992 96.312C97.2312 95.624 96.7192 95.096 96.0632 94.728C95.4232 94.36 94.6952 94.176 93.8792 94.176C93.0632 94.176 92.3272 94.36 91.6712 94.728C91.0312 95.096 90.5192 95.624 90.1352 96.312C89.7672 96.984 89.5832 97.76 89.5832 98.64C89.5832 99.52 89.7672 100.304 90.1352 100.992C90.5192 101.664 91.0312 102.192 91.6712 102.576C92.3272 102.944 93.0632 103.128 93.8792 103.128ZM116.648 102.984V107.952H114.488V105H103.856V107.952H101.672V102.984H102.344C103.16 102.936 103.72 102.36 104.024 101.256C104.328 100.152 104.536 98.592 104.648 96.576L104.84 92.28H114.704V102.984H116.648ZM106.76 96.744C106.696 98.344 106.56 99.672 106.352 100.728C106.16 101.768 105.8 102.52 105.272 102.984H112.4V94.296H106.88L106.76 96.744ZM131.434 92.28V105H129.13V94.296H121.954V105H119.65V92.28H131.434ZM135.892 92.28H138.196V101.544L145.996 92.28H148.084V105H145.78V95.736L138.004 105H135.892V92.28ZM158.1 105.144C156.804 105.144 155.644 104.864 154.62 104.304C153.612 103.744 152.82 102.976 152.244 102C151.668 101.008 151.38 99.888 151.38 98.64C151.38 97.392 151.668 96.28 152.244 95.304C152.82 94.312 153.612 93.544 154.62 93C155.644 92.44 156.804 92.16 158.1 92.16C159.252 92.16 160.276 92.392 161.172 92.856C162.084 93.32 162.788 93.992 163.284 94.872L161.532 96C161.132 95.392 160.636 94.936 160.044 94.632C159.452 94.328 158.796 94.176 158.076 94.176C157.244 94.176 156.492 94.36 155.82 94.728C155.164 95.096 154.644 95.624 154.26 96.312C153.892 96.984 153.708 97.76 153.708 98.64C153.708 99.536 153.892 100.328 154.26 101.016C154.644 101.688 155.164 102.208 155.82 102.576C156.492 102.944 157.244 103.128 158.076 103.128C158.796 103.128 159.452 102.976 160.044 102.672C160.636 102.368 161.132 101.912 161.532 101.304L163.284 102.408C162.788 103.288 162.084 103.968 161.172 104.448C160.276 104.912 159.252 105.144 158.1 105.144ZM171.211 99.624H168.571V105H166.267V92.28H168.571V97.656H171.259L175.387 92.28H177.859L173.035 98.4L178.195 105H175.483L171.211 99.624ZM180.611 92.28H182.915V101.544L190.715 92.28H192.803V105H190.499V95.736L182.723 105H180.611V92.28Z" fill="white"/>
<path d="M168.96 238.18C168.96 239.285 168.065 240.18 166.96 240.18H141.32C140.215 240.18 139.32 241.075 139.32 242.18V267.331C139.32 268.436 138.425 269.331 137.32 269.331H127.64C126.535 269.331 125.64 268.436 125.64 267.331V242.18C125.64 241.075 124.745 240.18 123.64 240.18H98C96.8954 240.18 96 239.285 96 238.18V229.314C96 228.21 96.8954 227.314 98 227.314H123.64C124.745 227.314 125.64 226.419 125.64 225.314V200C125.64 198.895 126.535 198 127.64 198H137.32C138.425 198 139.32 198.895 139.32 200V225.314C139.32 226.419 140.215 227.314 141.32 227.314H166.96C168.065 227.314 168.96 228.21 168.96 229.314V238.18Z" fill="#7B61FF"/>
<defs>
<filter id="filter0_d_715:1223" x="0" y="0" width="265" height="401" filterUnits="userSpaceOnUse" color-interpolation-filters="sRGB">
<feFlood flood-opacity="0" result="BackgroundImageFix"/>
<feColorMatrix in="SourceAlpha" type="matrix" values="0 0 0 0 0 0 0 0 0 0 0 0 0 0 0 0 0 0 127 0" result="hardAlpha"/>
<feOffset dy="2"/>
<feGaussianBlur stdDeviation="2"/>
<feComposite in2="hardAlpha" operator="out"/>
<feColorMatrix type="matrix" values="0 0 0 0 0 0 0 0 0 0 0 0 0 0 0 0 0 0 0.25 0"/>
<feBlend mode="normal" in2="BackgroundImageFix" result="effect1_dropShadow_715:1223"/>
<feBlend mode="normal" in="SourceGraphic" in2="effect1_dropShadow_715:1223" result="shape"/>
</filter>
</defs>
</svg>
